X: 1
T: The Fiery Clockface
M: 6/8
L: 1/8
K: Dmaj
|: "D"d2dD2E | F2GA2B|"C"=c2=cE2F | G2A B2c|"D"d2dD2E | F2GA2A|"G"Bcd "A"e2c | "D"d3 z2 :|
|: e|"D"f2f def | "G"g2fe2d|"A"c2BA2B | c2de2g|"D"f2f def | "G"g2fe2d|"A"cBA B2c | "D"d3 z2 :|